assets/cup.svg

<svg xmlns="http://www.w3.org/2000/svg" fill="none" viewBox="0 0 29 30">
  <path stroke="#2A2238" stroke-width="1.5" d="M1 3c0-.53043.18964-1.03914.52721-1.41421C1.86477 1.21071 2.32261 1 2.8 1h19.8c.4774 0 .9352.21071 1.2728.58579.3376.37507.5272.88378.5272 1.41421v2h.9c.7161 0 1.4028.31607 1.9092.87868C27.7155 6.44129 28 7.20435 28 8v14c0 .7956-.2845 1.5587-.7908 2.1213-.5064.5626-1.1931.8787-1.9092.8787h-.99c-.2075 1.1294-.7598 2.1444-1.5634 2.8733-.8036.7289-1.8092 1.1269-2.8466 1.1267H5.5c-1.19347 0-2.33807-.5268-3.18198-1.4645C1.47411 26.5979 1 25.3261 1 24V3Zm23.4 20h.9c.2387 0 .4676-.1054.6364-.2929.1688-.1875.2636-.4419.2636-.7071V8c0-.26522-.0948-.51957-.2636-.70711C25.7676 7.10536 25.5387 7 25.3 7h-.9v16Z"/>
</svg>

<svg width="29" height="30" viewBox="0 0 29 30" fill="none" xmlns="http://www.w3.org/2000/svg">
<path d="M1 3C1 2.46957 1.18964 1.96086 1.52721 1.58579C1.86477 1.21071 2.32261 1 2.8 1H22.6C23.0774 1 23.5352 1.21071 23.8728 1.58579C24.2104 1.96086 24.4 2.46957 24.4 3V5H25.3C26.0161 5 26.7028 5.31607 27.2092 5.87868C27.7155 6.44129 28 7.20435 28 8V22C28 22.7956 27.7155 23.5587 27.2092 24.1213C26.7028 24.6839 26.0161 25 25.3 25H24.31C24.1025 26.1294 23.5502 27.1444 22.7466 27.8733C21.943 28.6022 20.9374 29.0002 19.9 29H5.5C4.30653 29 3.16193 28.4732 2.31802 27.5355C1.47411 26.5979 1 25.3261 1 24V3ZM24.4 23H25.3C25.5387 23 25.7676 22.8946 25.9364 22.7071C26.1052 22.5196 26.2 22.2652 26.2 22V8C26.2 7.73478 26.1052 7.48043 25.9364 7.29289C25.7676 7.10536 25.5387 7 25.3 7H24.4V23Z" stroke="#2A2238" stroke-width="1.5"/>
</svg>
